src/main/resources/icons/CucumberIcons/org/jetbrains/plugins/cucumber/icons/cucumber.svg

<svg xmlns="http://www.w3.org/2000/svg" width="16" height="16" viewBox="0 0 16 16">
  <path fill="#00A817" fill-rule="evenodd" d="M11.4177939,9.1608209 C11.2188063,9.1608209 11.0570217,9.11435802 10.858034,9.03203793 C10.3007217,8.78507765 9.89515893,8.29317721 9.77596214,7.75784409 C10.0743213,7.55204385 10.44366,7.44169452 10.8083483,7.44926999 C11.0269166,7.45331024 11.2462191,7.49800551 11.454997,7.59067874 C11.614334,7.67299884 11.7685311,7.75026862 11.9278681,7.87374876 C12.4851804,8.28560174 12.1344432,9.20198094 11.4177939,9.1608209 M8.97976673,10.8852501 C8.86008043,10.76177 8.78567422,10.5994024 8.70588335,10.4347622 C8.46700025,9.85826905 8.54923869,9.24036332 8.8676679,8.78735029 C9.42498021,8.91108294 9.93480961,9.27925072 10.1736927,9.8557439 C10.2534836,10.0203841 10.2982742,10.2314871 10.2982742,10.3963798 C10.3379248,11.0137806 9.41763749,11.3794232 8.97976673,10.8852501 M8.63123238,3.67820165 C8.71077849,3.51356147 8.78567422,3.35397159 8.90487101,3.1893314 C9.06910314,2.98858148 9.30407012,2.90828151 9.52679924,2.93201798 C9.89858553,2.9711579 10.2483437,3.27947948 10.2236232,3.71683654 C10.2236232,3.88172925 10.1788326,4.09283231 10.0990417,4.2574725 C9.8604034,4.83396567 9.38753235,5.20188093 8.8304648,5.32561359 C8.47214015,4.87260056 8.39234928,4.25469482 8.63123238,3.67820165 M7.54916048,10.3963798 C7.46961437,10.56102 7.39471865,10.7206099 7.27552186,10.8852501 C6.87730178,11.4205832 5.95432211,11.04484 5.99421754,10.3446141 C5.99421754,10.179974 6.03900812,9.98174919 6.11855423,9.81710901 C6.35743733,9.24036332 6.83006362,8.87244805 7.38737593,8.74896791 C7.70580514,9.24314099 7.78804358,9.86079421 7.54916048,10.3963798 M5.35980669,9.07067282 C5.20046971,9.15299291 4.99903448,9.19920327 4.79980206,9.19920327 C4.08339753,9.24036332 3.73510793,8.37802246 4.2525248,7.92526194 C4.37196635,7.8017818 4.52616343,7.71163373 4.72539585,7.62931363 C4.93441856,7.5366404 5.15347631,7.49219765 5.37204456,7.48765237 C5.73477483,7.48108696 6.09065191,7.58865862 6.39219286,7.79673149 C6.31264675,8.33206462 5.917119,8.82346002 5.35980669,9.07067282 M4.67571012,4.95239549 C4.71756361,4.95012285 4.75525623,4.94709267 4.80004682,4.95239549 C4.99903448,4.95239549 5.16081903,4.99885837 5.35980669,5.08117846 C5.917119,5.32813874 6.3226818,5.82003918 6.44187859,6.35537231 C5.96435715,6.68465268 5.31991126,6.76949793 4.76284371,6.52253765 C4.60350673,6.44021756 4.44906489,6.35006948 4.28997266,6.22658934 C3.76741589,5.80185806 4.04790772,4.98572756 4.67571012,4.95239549 M6.62862839,2.97040036 C6.84670712,2.94893653 7.07384186,3.02721637 7.23807399,3.22796629 C7.35751554,3.35144643 7.43216651,3.51356147 7.51171262,3.67820165 C7.75059572,4.25469482 7.66860203,4.87285307 7.34992807,5.32561359 C6.79286052,5.20188093 6.28278636,4.83396567 6.04390327,4.2574725 C5.9641124,4.09283231 5.91956657,3.88172925 5.91956657,3.71683654 C5.91956657,3.30523607 6.26516384,3.00625757 6.62862839,2.97040036 M11.0833537,1.82485146 C10.9736216,1.75928041 10.8625207,1.69370935 10.7477697,1.63624779 C10.6309655,1.57785942 10.5109674,1.52062956 10.3889161,1.47150919 C10.3503616,1.4548268 10.3122633,1.43999801 10.2732525,1.42424242 C10.1669424,1.38439005 10.0594917,1.33920858 9.9493033,1.3065389 C9.35615684,1.10727703 8.72171825,1 8.06332568,1 C4.71204815,1 2,3.7620939 2,7.17503269 C2,10.179948 4.11502342,12.6767456 6.9062338,13.2321301 L6.9062338,15 C10.5349214,14.4427619 13.7479501,11.5092101 13.9877182,7.65835857 C14.1318984,5.34043328 12.9971636,2.97408272 11.0833537,1.82485146"/>
</svg>

<svg xmlns="http://www.w3.org/2000/svg" width="16" height="16" viewBox="0 0 16 16"><rect id="frame" width="16" height="16" fill="none"/><path fill="#00A817" fill-rule="evenodd" d="M11.418 9.16c-.2 0-.361-.046-.56-.128-.557-.247-.963-.739-1.082-1.274a1.774 1.774 0 0 1 1.032-.309c.219.004.438.049.647.142.16.082.314.16.473.283.557.412.206 1.328-.51 1.287M8.98 10.885c-.12-.123-.194-.286-.274-.45a1.717 1.717 0 0 1 .162-1.648c.557.124 1.067.492 1.306 1.069.08.164.124.375.124.54.04.618-.88.983-1.318.49M8.63 3.677c.08-.164.155-.324.274-.489a.7.7 0 0 1 .622-.257c.372.04.721.347.697.785 0 .165-.045.376-.125.54A1.765 1.765 0 0 1 8.83 5.326c-.358-.453-.438-1.071-.199-1.648M7.55 10.396c-.08.165-.154.325-.273.49-.399.535-1.322.159-1.282-.541 0-.165.045-.363.125-.528A1.764 1.764 0 0 1 7.387 8.75c.319.494.401 1.112.162 1.647M5.36 9.071a1.25 1.25 0 0 1-.56.128c-.716.041-1.064-.821-.546-1.274.119-.123.273-.213.472-.296.21-.092.428-.137.647-.141.363-.007.719.1 1.02.309-.08.535-.475 1.026-1.032 1.274m-.684-4.119c.042-.002.08-.005.124 0 .199 0 .36.047.56.13.557.246.963.738 1.082 1.273a1.741 1.741 0 0 1-1.68.168 2.966 2.966 0 0 1-.472-.296c-.523-.425-.242-1.241.386-1.275M6.629 2.97a.688.688 0 0 1 .61.258c.119.123.193.286.273.45a1.716 1.716 0 0 1-.162 1.648c-.557-.124-1.067-.492-1.306-1.069a1.332 1.332 0 0 1-.124-.54c0-.412.345-.71.709-.747m4.454-1.145a4.9 4.9 0 0 0-.694-.353l-.116-.048c-.106-.04-.214-.085-.324-.117A5.913 5.913 0 0 0 8.063 1C4.712 1 2 3.762 2 7.175c0 3.005 2.115 5.502 4.906 6.057V15c3.629-.557 6.842-3.49 7.082-7.342.144-2.318-.99-4.684-2.905-5.833"/></svg>
